X:1
T:Cha Till MacCruimein - MacCrimmon Will Never Return
M:6/8
L:1/8
Q:80
C:Ceol Mor
S:
K:HP
[| {eAfA}e2f{g}B2f|
{g}e2f{g}eA{d}B| |
{eAfA}e2f{g}B2f|  !
{g}e2f{g}eG{d}B| |
{eAfA}e2f{g}B2e|
{Gdc}d2e{g}dA{d}B| |]  !
{eAfA}e2f{g}B2f|
{g}e2f{g}eG{d}B| |
{eAfA}e2f{g}B2f|  !
{Gdc}d2e{g}dG{d}B| |
{eAfA}e2f{g}B2e|
{Gdc}d2e{g}dA{d}B|] [|  !
{eAfA}e2f{g}B2f|
{g}e2f{g}eG{d}B| |
{eAfA}e2f{g}B2e|  !
{Gdc}d2e{g}dA{d}B|] [|
{eAfA}e2aB2f|
{g}e2f{g}eA{d}B| |  !
{eAfA}e2aB2f|
{g}e2f{g}eG{d}B| |
{eAfA}e2aB2e|  !
{Gdc}d2e{g}dA{d}B| [|
{eAfA}e2aB2f|
{g}e2f{g}eG{d}B| |  !
{eAfA}e2aB2f|
{Gdc}d2e{g}dG{d}B| |
{eAfA}e2aB2e|  !
{Gdc}d2e{g}dA{d}B|] [|
{eAfA}e2aB2f|
{g}e2f{g}eG{d}B| |  !
{eAfA}e2aB2e|
{Gdc}d2e{g}dA{d}B|] [|
{g}e2f{g}B2f|  !
{g}e2f{g}eA{d}B| |
{g}e2f{g}B2f|
{g}e2f{g}eA{d}B| |  !
{g}e2f{g}B2e|
{Gdc}d2e{g}dA{d}B| [|
e2f{g}B2f|  !
{g}e2f{g}eG{d}B| |
{g}e2f{g}B2e|
{Gdc}d2e{g}dG{d}B| |  !
{g}e2f{g}B2e|
{Gdc}d2e{g}dA{d}B|] [|
e2f{g}B2f|  !
{g}e2f{g}eG{d}B| |
{g}e2f{g}B2e|
{Gdc}d2e{g}dA{d}B|] [|  !
{g}e2d{g}e2B|
{g}e2f{g}eA{d}B| |
{g}e2d{g}e2B|  !
{g}e2f{g}eG{d}B| |
{g}e2de2B|
G/2d/4c/4d2e{g}dA{d}B| [|  !
{g}e2d{g}e2B|
{g}e2f{g}eA{d}B| |
{g}e2d{g}e2B|  !
G/2d/4c/4d2e{g}dG{d}B| |
{g}e2de2B|
G/2d/4c/4d2e{g}dA{d}B|] [|  !
{g}e2d{g}e2B|
{g}e2f{g}eG{d}B| |
{g}e2d{g}e2B|  !
G/2d/4c/4d2e{g}dA{d}B|] [|
{g}e2{GdGe}A{g}B2{GdGe}A|
{g}f2{GdGe}A{g}e2{g}d| |  !
{g}e2{GdGe}A{g}B2{GdGe}A|
{g}f2{GdGe}A{g}e2{g}d| |
{g}e2{GdGe}G{g}B2{GdGe}A|  !
{g}e2{GdGe}A{g}d2{e}B| [|
{g}e2{GdGe}A{g}B2{GdGe}A|
{g}f2{GdGe}A{g}e2{g}d| |  !
{g}e2{GdGe}G{g}B2{GdGe}A|
{g}e2{GdGe}A{g}d2{e}B| |
{g}e2{GdGe}G{g}B2{GdGe}A|  !
{g}e2{GdGe}A{g}d2{e}B|] [|
{g}e2{GdGe}A{g}B2{GdGe}A|
{g}f2{GdGe}A{g}e2{g}d| |  !
{g}e2{GdGe}G{g}B2{GdGe}A|
{g}e2{GdGe}A{g}d2{e}B|] [|
{g}e2{GdGe}A{g}B2{GdGe}A|  !
{g}f2{GdGe}A{g}e2{GdGe}A| |
{g}e2{GdGe}A{g}B2{GdGe}A|
{g}f2{GdGe}A{g}e2{GdGe}A| |  !
{g}e2{GdGe}G{g}B2{GdGe}A|
{g}e2{GdGe}A{g}d2{GdGe}A| [|
{g}e2{GdGe}A{g}B2{GdGe}A|  !
{g}f2{GdGe}A{g}e2{GdGe}A| |
{g}e2{GdGe}G{g}B2{GdGe}A|
{g}e2{GdGe}A{g}d2{GdGe}A| |  !
{g}e2{GdGe}G{g}B2{GdGe}A|
{g}e2{GdGe}A{g}d2{GdGe}A|] [|
{g}e2{GdGe}A{g}B2{GdGe}A|  !
{g}f2{GdGe}A{g}e2{GdGe}A| |
{g}e2{GdGe}G{g}B2{GdGe}A|
{g}e2{GdGe}A{g}d2{GdGe}A|] [|  !
{g}e2{GdGeAfA}A{g}B2{GdGeAfA}A|
{g}f2{GdGeAfA}A{g}e2{g}d| |
{g}e2{GdGeAfA}A{g}B2{GdGeAfA}A|  !
{g}f2{GdGeAfA}A{g}e2{g}d| |
{g}e2{GdGeAfA}e{g}B2{GdGeAfA}A|
{g}e2{GdGeAfA}A{g}d2{e}B| [|  !
{g}e2{GdGeAfA}A{g}B2{GdGeAfA}A|
{g}f2{GdGeAfA}A{g}e2{g}d| |
{g}e2{GdGeAfA}e{g}B2{GdGeAfA}A|  !
{g}e2{GdGeAfA}A{g}d2{e}B| |
{g}e2{GdGeAfA}e{g}B2{GdGeAfA}A|
{g}e2{GdGeAfA}A{g}d2{e}B|] [|  !
{g}e2{GdGeAfA}A{g}B2{GdGeAfA}A|
{g}f2{GdGeAfA}A{g}e2{g}d| |
{g}e2{GdGeAfA}e{g}B2{GdGeAfA}A|  !
{g}e2{GdGeAfA}A{g}d2{e}B|] [|
{g}e2{GdGeAfA}A{g}B2{GdGeAfA}A|
{g}f2{GdGeAfA}A{g}e2{GdGeAfA}A| |  !
{g}e2{GdGeAfA}A{g}B2{GdGeAfA}A|
{g}f2{GdGeAfA}A{g}e2{GdGeAfA}A| |
{g}e2{GdGeAfA}G{g}B2{GdGeAfA}A|  !
{g}e2{GdGeAfA}A{g}d2{GdGeAfA}A| [|
{g}e2{GdGeAfA}A{g}B2{GdGeAfA}A|
{g}f2{GdGeAfA}A{g}e2{GdGeAfA}A| |  !
{g}e2{GdGeAfA}G{g}B2{GdGeAfA}A|
{g}e2{GdGeAfA}A{g}d2{GdGeAfA}A| |
{g}e2{GdGeAfA}G{g}B2{GdGeAfA}A|  !
{g}e2{GdGeAfA}A{g}d2{GdGeAfA}A|] [|
{g}e2{GdGeAfA}A{g}B2{GdGeAfA}A|
{g}f2{GdGeAfA}A{g}e2{GdGeAfA}A| |  !
{g}e2{GdGeAfA}G{g}B2{GdGeAfA}A|
{g}e2{GdGeAfA}A{g}d2{GdGeAfA}A|]

